X:5764
T:Salmon tails up the water
O:england
M:4/4
L:1/8
C:Trad
K:G
G2 E2 D2 E2 | G4 G3 A | B2 d2 A2 BA | G2 E2 D4 | G2 E2 D2 E2 | G4 G3 A |
B2 d2 A2 BA | G4 G4 :|
|:  B2 d2 d3 B | c2 e2 e4 | d2 B2 A2 BA | G2 E2 D4 | B2 d2 d3 B | c2 e2
e3 f | g2 f2 e2 d2 | B4 B4 |
B2 d2 d3 B | c2 e2 e4 | d2 B2 A2 BA  | G2 E2 D4  | G2 E2 D2 E2 | G4 G3
A | B2 d2 A2 BA | G4 G4 :|


